X: 0
T: As With Gladness Men Of Old
L: 1/4
M: 4/4
K: A
[V: P1]  A (G/A/) B A | d d c2 | F G A F | E E E2 | A (G/A/) B A | d d c2 | F G A F | E E E2 | c B A c | e3/ d/ c2 | F G A F | E E E2 | c B A c | e3/ d/ c2 | F G A d | c B A2|]
[V: P2]  E E E E | D E E2 | D E E D | C B, C2 | E E E E | D E E2 | D E E D | C B, C2 | E E E E | E E E2 | D E E D | C B, C2 | E E E E | E E E2 | D E E D | E3/ D/ C2|]
[V: P3]  C (D/C/) B, C | A, B, A,2 | A, B, A, A, | A, G, A,2 | C (D/C/) B, C | A, B, A,2 | A, B, A, A, | A, G, A,2 | A, (E/D/) C A, | B, G, A,2 | A, B, A, A, | A, G, A,2 | A, (E/D/) C A, | B, G, A,2 | A, B, A, A, | A, G, A,2|]
[V: P4]  A, (B,/ A,/) G, A, | F, G, A,2 | D, D, C, D, | E, E, A,,2 | A, (B,/ A,/) G, A, | F, G, A,2 | D, D, C, D, | E, E, A,,2 | A, G, A, A, | G, E, A,,2 | D, D, C, D, | E, E, A,,2 | A, G, A, A, | G, E, A,,2 | D, D, C, F, | E, E, A,2|]

